X:104
T:Red Coat Fifer
M:2/4
L:1/8
K:D
d/B/|Ad d/c/d/e/|fe/d/ eA|Af/g/ ff/g/|ag/f/ ge|f/g/a/f/ df|AB/c/ df/g/|ag/f/ ba/g/|Tfdd::
z|a>g f/g/a|dd/e/ dA|a>g f/g/a|aa/b/ a2|a>g f/g/a|dd/e/ df/g/|ag/f/ ba/g/|Tfdd:|
